!!!COM: Augusta Holme\s
!!!CNT: Francais
!!!TXO: Francais
!!!OTL: ""
!!!LYR:
!!!OPR: Les Heures (L'heure de pourpre)
!!!OPS: Op.
!!!ONM: No.
!!!ENC: Alyona Dzerbina
!!!YOR: Augusta Holme\s, Les Heures
!!!YOR: Recital Publications, 1982
!!!ODT: 1899/
!!NB: Vocal melody and text encoded.
**kern	**text
*staff1	*staff1
=1-	=1-
*clefG2	*
*k[b-e-]	*
*M3/4	*
*MM48	*
2.r	.
=2	=2
2.r	.
=3	=3
2.r	.
=4	=4
2.r	.
=5	=5
2.r	.
=6	=6
2.r	.
=7	=7
4r	.
4r	.
8r	.
16r	.
{16d	{C'est
=8	=8
(4g	l'heu-
[4d)	-re!
8d]	|
8r	.
=9	=9
(4g	L'heu-
[4d)	-re!
16d]}	|}
16r	.
{8d	{Ou\
=10	=10
8f	le
8f	so-
8.a	-leil
16a	mourant-
4dd	.
=11	=11
(8ff	Rou-
24ee-	-le
24dd	vers
24a)	sa
(6f	rou-
24g	-ge
24a)	demeu-
4c#	|
=12	=12
[4d	re
8d]}	|}
8r	.
4r	.
=13	=13
4r	.
4r	.
8r	.
16r	.
{16d	{C'est
=14	=14
(4g	l'heu-
[4d)	-re!
8d]	|
8r	.
=15	=15
(8g	l'heu-
24g	-re
24f#	du
24g	baiser-
2dd)	|
=16	=16
4.a	fauve
8a	et
8.a	to-
16a	-tu-
=17	=17
[2a	-rant!
8a]}	|}
8r	.
=18	=18
2.r	.
=19	=19
2.r	.
=20	=20
4r	.
4r	.
8r	.
16r	.
{16a	{E
=21	=21
(4dd	cou-
[4a)	-te!
8a]	|
16r	.
16a	E-
=22	=22
4dd	-cou-
[4a	-te,
8a]	|
(8a	Blot-
=23	=23
4a	-tie
8b-	en-
16a	-tre
16g	mes
8a)}	bras,}
16r	.
{16a	{Mon
=24	=24
8b-	couer
16r	.
16b-	qui
8.cc	sai-
16cc	-gne
8.dd	goutte
16dd	a\
=25	=25
(4ff	gout-
[4een)	-te...
8ee]}	|}
16r	.
{16ee	{E
=26	=26
4aa	cou-
[4een	-te!
8ee]	|
16r	.
16ee	E
=27	=27
(4gg	cou-
[4dd)	-te!
8dd]}	|}
8r	.
=28	=28
{[8ff	{Si
32ff]	|
32a	tu
32f	me
32g	tra-
8a	-his,
8r	.
8.c#	tu
16c#	mour-
=29	=29
[4d	-ras!
8d]}	|}
8r	.
4r	.
=30	=30
4r	.
4r	.
4r	.
=31	=31
2.r	.
=32	=32
4r	.
4r	.
8r	.
{8d	{Oh!
=33	=33
(4cc	pleu-
4b-	|
8a)	-re!
8r	.
=34	=34
(4ee-	pleu-
4dd	|
8cc)}	-re}
24r	.
{(24d	{Si
24d)	ja-
=35	=35
*met(C)	*
*M4/4	*
8g	-mais
24r	.
(24g	en
24g)	pas-
8a	-sant,
24r	.
(24a	me^me
24a)	en
8b-	re^ve,
24r	.
(24b-	Un-
24b-)	de/
8dd	-sir
16r	.
16dd	t'ef-
=36	=36
*M2/4	*
(4ff	-fleu-
8f)}	-re!}
16r	.
{16f	{Oh!
=37	=37
*M3/4	*
8.a	pleu-
16a	-re,
8.dd	pleu-
16dd	-re,
8.ff	pleu-
16ff	-re,
=38	=38
[4aa	pleu-
32aa]	|
32ff	-re,
32dd	car
32b-	la
(32a	nei
32f)	|
32en	ge
32d	boi-
8.c#	-ra
16c#	ton
=39	=39
[4d	sang!-
8d]}	|}
8r	.
4r	.
=40	=40
2.r	.
=41	=41
2.r	.
=42	=42
4r	.
4r	.
8r	.
16r	.
{16d	{Cest
=43	=43
(4g	l'heu-
[4d)	-re!
8d]	|
8r	.
=44	=44
(4g	l'heu-
[4d)	-re
8d]}	|}
16r	.
{16d	{Ou\
=45	=45
8f	le
8f	sol-
8.b-	-leil
16b-	mou-
4dd	-rant
=46	=46
(8.ff	Rou-
48dd	-le
48cc	vers
48b-)	sa
(6f	rou-
24g	-ge
24a)	de-
4c#	-meu
=47	=47
[4d	-re...
8d]}	|}
8r	.
8r	.
16r	.
{16d	{C'est
=48	=48
(4g	l'heu-
4b-	|
8dd	|
8g)	-re!
=49	=49
(4aa-	l'heu-
8gg)	|
8ff	-re
8.ee-	Ou\
16gg	l'on
=50	=50
(4dd	s'ai-
8cc)	|
8b-	-me,
(6g	Ou\
12b-	l'on
=51	=51
4e-)	s'aime
8d	en
8d	se
8d	tor-
8d	-tu-
=52	=52
[4d	-rant!
8d]}	|}
8r	.
4r	.
=53	=53
2.r	.
=54	=54
2.r	.
=55	=55
2.r	.
=56	=56
2.r	.
=57	=57
2.r	.
=58	=58
2.r	.
==	==
*-	*-
